icons/evolvere-blue-folders-flat-vivid-dark-fallback/categories/64/applications-interfacedesign.svg

<?xml version="1.0" encoding="UTF-8" standalone="no"?>
<!-- Created with Inkscape (http://www.inkscape.org/) -->

<svg
   xmlns:dc="http://purl.org/dc/elements/1.1/"
   xmlns:cc="http://creativecommons.org/ns#"
   xmlns:rdf="http://www.w3.org/1999/02/22-rdf-syntax-ns#"
   xmlns:svg="http://www.w3.org/2000/svg"
   xmlns="http://www.w3.org/2000/svg"
   xmlns:sodipodi="http://sodipodi.sourceforge.net/DTD/sodipodi-0.dtd"
   xmlns:inkscape="http://www.inkscape.org/namespaces/inkscape"
   width="64"
   height="64"
   id="svg13094"
   version="1.1"
   inkscape:version="0.91+devel r"
   sodipodi:docname="applications-interfacedesign.svg">
  <sodipodi:namedview
     id="base"
     pagecolor="#ffffff"
     bordercolor="#666666"
     borderopacity="1.0"
     inkscape:pageopacity="0"
     inkscape:pageshadow="2"
     inkscape:zoom="8.0000004"
     inkscape:cx="38.869624"
     inkscape:cy="33.372735"
     inkscape:document-units="px"
     inkscape:current-layer="svg13094"
     showgrid="true"
     inkscape:snap-bbox="true"
     inkscape:bbox-paths="true"
     inkscape:bbox-nodes="true"
     inkscape:snap-bbox-edge-midpoints="true"
     inkscape:snap-bbox-midpoints="true"
     inkscape:object-paths="true"
     inkscape:snap-intersection-paths="true"
     inkscape:object-nodes="true"
     inkscape:snap-smooth-nodes="true"
     inkscape:snap-midpoints="true"
     inkscape:snap-object-midpoints="true"
     inkscape:snap-center="true"
     showguides="false"
     inkscape:guide-bbox="true"
     inkscape:window-width="1920"
     inkscape:window-height="1023"
     inkscape:window-x="-10"
     inkscape:window-y="35"
     inkscape:window-maximized="1"
     inkscape:snap-global="true"
     fit-margin-top="0"
     fit-margin-left="0"
     fit-margin-right="0"
     fit-margin-bottom="0"
     showborder="true"
     inkscape:showpageshadow="false"
     inkscape:snap-page="true">
    <inkscape:grid
       type="xygrid"
       id="grid3075"
       empspacing="5"
       visible="true"
       enabled="true"
       snapvisiblegridlinesonly="true"
       originx="1.6362304e-08px"
       originy="18px" />
    <sodipodi:guide
       orientation="0,1"
       position="-11,30"
       id="guide9148" />
    <sodipodi:guide
       orientation="1,0"
       position="32,70"
       id="guide9150" />
  </sodipodi:namedview>
  <defs
     id="defs13096" />
  <metadata
     id="metadata13099">
    <rdf:RDF>
      <cc:Work
         rdf:about="">
        <dc:format>image/svg+xml</dc:format>
        <dc:type
           rdf:resource="http://purl.org/dc/dcmitype/StillImage" />
        <dc:title></dc:title>
      </cc:Work>
    </rdf:RDF>
  </metadata>
  <path
     id="path6538"
     d="m 0,2 0,32 0,28 2,2 30,0 30,0 2,-2 0,-28 0,-32 -32,0 z"
     style="color:#000000;display:inline;overflow:visible;visibility:visible;opacity:1;fill:#aeb4c3;fill-opacity:1;fill-rule:nonzero;stroke:none;stroke-width:2.28571415;stroke-linecap:butt;stroke-linejoin:miter;stroke-miterlimit:4;stroke-dasharray:none;stroke-dashoffset:0;stroke-opacity:1;marker:none;enable-background:accumulate"
     inkscape:connector-curvature="0"
     sodipodi:nodetypes="ccccccccccc" />
  <path
     style="color:#000000;display:inline;overflow:visible;visibility:visible;opacity:1;fill:#e7ecf0;fill-opacity:1;fill-rule:nonzero;stroke:none;stroke-width:1;stroke-linecap:butt;stroke-linejoin:miter;stroke-miterlimit:4;stroke-dasharray:none;stroke-dashoffset:0;stroke-opacity:1;marker:none;enable-background:accumulate"
     d="M 2,0 0,1 0,2 19.5625,2 39.125,2 64,2 64,1 62,0 39.125,0 19.5625,0 Z"
     id="path6688"
     inkscape:connector-curvature="0"
     sodipodi:nodetypes="ccccccccccc" />
  <path
     d="M 64,4 62,2 64,1 Z"
     id="path3028"
     style="opacity:1;fill:#ccd1db;fill-opacity:1;stroke:none;stroke-width:1;stroke-linecap:butt;stroke-linejoin:miter;stroke-miterlimit:4;stroke-dasharray:none;stroke-dashoffset:0;stroke-opacity:1;marker:none"
     inkscape:connector-curvature="0"
     sodipodi:nodetypes="cccc" />
  <g
     id="g3043"
     inkscape:export-filename="folder.png"
     inkscape:export-xdpi="90"
     inkscape:export-ydpi="90"
     transform="translate(-0.62500009,0.082283)" />
  <g
     id="scalable"
     transform="matrix(1.0385892,0,0,1.0385892,1214.7222,1878.8121)"
     inkscape:label="#g3701"
     style="fill:#ffffff" />
  <path
     style="opacity:1;fill:#f2f5f7;fill-opacity:1;fill-rule:nonzero;stroke-width:1;stroke-linecap:butt;stroke-linejoin:miter;stroke-miterlimit:4;stroke-dasharray:none;stroke-dashoffset:0;stroke-opacity:1"
     d="M 0,1 0,4 2,2 Z"
     id="path4298"
     inkscape:connector-curvature="0"
     sodipodi:nodetypes="cccc" />
  <g
     id="g3814">
    <rect
       y="15"
       x="35"
       height="45"
       width="25"
       id="rect3011"
       style="color:#000000;fill:#ffffff;fill-opacity:0.53577815;fill-rule:nonzero;stroke:none;stroke-width:2.28571415;marker:none;visibility:visible;display:inline;overflow:visible;enable-background:accumulate;opacity:1;stroke-linecap:butt;stroke-linejoin:miter;stroke-miterlimit:4;stroke-dasharray:none;stroke-dashoffset:0;stroke-opacity:1" />
    <rect
       ry="1.5"
       rx="1.5"
       y="19"
       x="56"
       height="22"
       width="3"
       id="rect3802"
       style="color:#000000;fill:#00122b;fill-opacity:0.65860219;fill-rule:nonzero;stroke:none;stroke-width:1.00000001;marker:none;visibility:visible;display:inline;overflow:visible;enable-background:accumulate;opacity:1;stroke-linecap:butt;stroke-linejoin:miter;stroke-miterlimit:4;stroke-dasharray:none;stroke-dashoffset:0;stroke-opacity:1" />
    <rect
       transform="matrix(0,-1,1,0,0,0)"
       ry="1.5"
       rx="1.5"
       y="39"
       x="-59"
       height="14"
       width="3"
       id="rect3781"
       style="color:#000000;fill:#00122b;fill-opacity:0.65860219;fill-rule:nonzero;stroke:none;stroke-width:1.00000001;marker:none;visibility:visible;display:inline;overflow:visible;enable-background:accumulate;opacity:1;stroke-linecap:butt;stroke-linejoin:miter;stroke-miterlimit:4;stroke-dasharray:none;stroke-dashoffset:0;stroke-opacity:1" />
    <g
       transform="matrix(0.5625,0,0,0.5625,1.7324219,4)"
       inkscape:label="#g3851"
       id="active-center">
      <rect
         style="opacity:0.00100002;fill:#ffffff;fill-opacity:0.44581496;fill-rule:nonzero;stroke:none"
         id="rect3853"
         width="16"
         height="16"
         x="0"
         y="0" />
      <path
         style="font-size:medium;font-style:normal;font-variant:normal;font-weight:normal;font-stretch:normal;text-indent:0;text-align:start;text-decoration:none;line-height:normal;letter-spacing:normal;word-spacing:normal;text-transform:none;direction:ltr;block-progression:tb;writing-mode:lr-tb;text-anchor:start;baseline-shift:baseline;color:#000000;fill:#00122b;fill-opacity:0.65860219;stroke:none;stroke-width:1.7777778;marker:none;visibility:visible;display:inline;overflow:visible;enable-background:accumulate;font-family:Sans;-inkscape-font-specification:Sans;opacity:1;stroke-linecap:butt;stroke-linejoin:miter;stroke-miterlimit:4;stroke-dasharray:none;stroke-dashoffset:0;stroke-opacity:1"
         d="M 5.46875,4.03125 4.03125,5.46875 6.5625,8 4.03125,10.53125 5.46875,11.96875 8,9.4375 l 2.53125,2.53125 1.4375,-1.4375 L 9.4375,8 11.96875,5.46875 10.53125,4.03125 8,6.5625 z"
         id="path3855"
         inkscape:connector-curvature="0"
         sodipodi:nodetypes="ccccccccccccc" />
    </g>
    <g
       transform="matrix(0.5625,0,0,0.5625,19.732422,4)"
       inkscape:label="#g3851"
       id="active-center-8">
      <rect
         style="opacity:0.00100002;fill:#ffffff;fill-opacity:0.44581496;fill-rule:nonzero;stroke:none"
         id="rect3853-9"
         width="16"
         height="16"
         x="0"
         y="0" />
      <path
         sodipodi:nodetypes="cccccccccc"
         inkscape:connector-curvature="0"
         id="path2994"
         d="m 5,5 0,6 6,0 0,-6 z M 7,7 9,7 9,9 7,9 z"
         style="font-size:medium;font-style:normal;font-variant:normal;font-weight:normal;font-stretch:normal;text-indent:0;text-align:start;text-decoration:none;line-height:normal;letter-spacing:normal;word-spacing:normal;text-transform:none;direction:ltr;block-progression:tb;writing-mode:lr-tb;text-anchor:start;baseline-shift:baseline;color:#000000;fill:#00122b;fill-opacity:0.65860219;stroke:none;stroke-width:1.7777778;marker:none;visibility:visible;display:inline;overflow:visible;enable-background:accumulate;font-family:Sans;-inkscape-font-specification:Sans;opacity:1;stroke-linecap:butt;stroke-linejoin:miter;stroke-miterlimit:4;stroke-dasharray:none;stroke-dashoffset:0;stroke-opacity:1" />
    </g>
    <g
       transform="matrix(0.5625,0,0,0.5625,10.732422,4)"
       inkscape:label="#g3851"
       id="active-center-3">
      <rect
         style="opacity:0.00100002;fill:#ffffff;fill-opacity:0.44581496;fill-rule:nonzero;stroke:none"
         id="rect3853-8"
         width="16"
         height="16"
         x="0"
         y="0" />
      <path
         style="font-size:medium;font-style:normal;font-variant:normal;font-weight:normal;font-stretch:normal;text-indent:0;text-align:start;text-decoration:none;line-height:normal;letter-spacing:normal;word-spacing:normal;text-transform:none;direction:ltr;block-progression:tb;writing-mode:lr-tb;text-anchor:start;baseline-shift:baseline;color:#000000;fill:#00122b;fill-opacity:0.65860219;stroke:none;stroke-width:1.7777778;marker:none;visibility:visible;display:inline;overflow:visible;enable-background:accumulate;font-family:Sans;-inkscape-font-specification:Sans;opacity:1;stroke-linecap:butt;stroke-linejoin:miter;stroke-miterlimit:4;stroke-dasharray:none;stroke-dashoffset:0;stroke-opacity:1"
         d="M 4,6.967068 4,9 12,9 12,6.967068 z"
         id="path3855-3"
         inkscape:connector-curvature="0"
         sodipodi:nodetypes="ccccc" />
    </g>
    <g
       transform="matrix(0.5625,0,0,0.5625,53,4)"
       inkscape:label="#g3851"
       id="active-center-86">
      <rect
         style="opacity:0.00100002;fill:#ffffff;fill-opacity:0.44581496;fill-rule:nonzero;stroke:none"
         id="rect3853-6"
         width="16"
         height="16"
         x="0"
         y="0" />
      <path
         style="font-size:medium;font-style:normal;font-variant:normal;font-weight:normal;font-stretch:normal;text-indent:0;text-align:start;text-decoration:none;line-height:normal;letter-spacing:normal;word-spacing:normal;text-transform:none;direction:ltr;block-progression:tb;writing-mode:lr-tb;text-anchor:start;baseline-shift:baseline;color:#000000;fill:#00122b;fill-opacity:0.65860219;stroke:none;stroke-width:1.7777778;marker:none;visibility:visible;display:inline;overflow:visible;enable-background:accumulate;font-family:Sans;-inkscape-font-specification:Sans;opacity:1;stroke-linecap:butt;stroke-linejoin:miter;stroke-miterlimit:4;stroke-dasharray:none;stroke-dashoffset:0;stroke-opacity:1"
         d="m 6.5625,6.734375 -2.53125,2.53125 1.4375,1.4375 L 8,8.171875 l 2.53125,2.53125 1.4375,-1.4375 L 9.4375,6.734375 8,5.296875 z"
         id="path3855-2"
         inkscape:connector-curvature="0"
         sodipodi:nodetypes="ccccccccc" />
    </g>
    <rect
       style="color:#000000;fill:#ffffff;fill-opacity:0.53577815;fill-rule:nonzero;stroke:none;stroke-width:2.28571415;marker:none;visibility:visible;display:inline;overflow:visible;enable-background:accumulate;opacity:1;stroke-linecap:butt;stroke-linejoin:miter;stroke-miterlimit:4;stroke-dasharray:none;stroke-dashoffset:0;stroke-opacity:1"
       id="rect3143"
       width="27"
       height="8"
       x="5"
       y="51"
       rx="0"
       ry="0" />
    <g
       transform="translate(0,-1)"
       id="g3137">
      <circle
         style="color:#000000;fill:#ffffff;fill-opacity:0.53577815;fill-rule:nonzero;stroke:none;stroke-width:2.28571415;marker:none;visibility:visible;display:inline;overflow:visible;enable-background:accumulate;opacity:1;stroke-linecap:butt;stroke-linejoin:miter;stroke-miterlimit:4;stroke-dasharray:none;stroke-dashoffset:0;stroke-opacity:1"
         id="path3072"
         sodipodi:type="arc"
         sodipodi:ry="4"
         sodipodi:rx="4"
         sodipodi:cy="20"
         sodipodi:cx="9" />
      <circle
         style="color:#000000;fill:#00122b;fill-opacity:0.65860219;fill-rule:nonzero;stroke:none;stroke-width:2.00000002;marker:none;visibility:visible;display:inline;overflow:visible;enable-background:accumulate;opacity:1;stroke-linecap:butt;stroke-linejoin:miter;stroke-miterlimit:4;stroke-dasharray:none;stroke-dashoffset:0;stroke-opacity:1"
         id="path3112"
         transform="matrix(0.5,0,0,0.5,4.5,9.9999999)"
         sodipodi:type="arc"
         sodipodi:ry="4"
         sodipodi:rx="4"
         sodipodi:cy="20"
         sodipodi:cx="9" />
      <text
         sodipodi:linespacing="125%"
         id="text3076"
         y="21.125"
         x="15.291183"
         style="font-size:3px;font-style:normal;font-variant:normal;font-weight:normal;font-stretch:normal;line-height:125%;letter-spacing:0px;word-spacing:0px;color:#000000;fill:#00122b;fill-opacity:0.65860219;fill-rule:nonzero;stroke:none;stroke-width:1.00000001;marker:none;visibility:visible;display:inline;overflow:visible;enable-background:accumulate;font-family:Monospace;-inkscape-font-specification:Monospace;opacity:1;stroke-linecap:butt;stroke-linejoin:miter;stroke-miterlimit:4;stroke-dasharray:none;stroke-dashoffset:0;stroke-opacity:1;"
         xml:space="preserve"><tspan
           y="21.125"
           x="15.291183"
           id="tspan3078"
           sodipodi:role="line">Radio box</tspan></text>
    </g>
    <g
       id="g3131">
      <rect
         ry="0"
         rx="0"
         y="27"
         x="5"
         height="8"
         width="8"
         id="rect3114"
         style="color:#000000;fill:#ffffff;fill-opacity:0.53577815;fill-rule:nonzero;stroke:none;stroke-width:2.28571415;marker:none;visibility:visible;display:inline;overflow:visible;enable-background:accumulate;opacity:1;stroke-linecap:butt;stroke-linejoin:miter;stroke-miterlimit:4;stroke-dasharray:none;stroke-dashoffset:0;stroke-opacity:1" />
      <text
         sodipodi:linespacing="125%"
         id="text3116"
         y="32.125"
         x="15.291183"
         style="font-size:3px;font-style:normal;font-variant:normal;font-weight:normal;font-stretch:normal;line-height:125%;letter-spacing:0px;word-spacing:0px;color:#000000;fill:#00122b;fill-opacity:0.65860219;fill-rule:nonzero;stroke:none;stroke-width:1.00000001;marker:none;visibility:visible;display:inline;overflow:visible;enable-background:accumulate;font-family:Monospace;-inkscape-font-specification:Monospace;opacity:1;stroke-linecap:butt;stroke-linejoin:miter;stroke-miterlimit:4;stroke-dasharray:none;stroke-dashoffset:0;stroke-opacity:1;"
         xml:space="preserve"><tspan
           y="32.125"
           x="15.291183"
           id="tspan3118"
           sodipodi:role="line">Check box</tspan></text>
      <path
         inkscape:connector-curvature="0"
         id="path3110"
         d="m 10.9375,27.90625 -2.28125,3.0625 -1.1875,-1.1875 -1.4375,1.4375 2,2 0.8125,0.8125 0.71875,-0.9375 3,-4 -1.625,-1.1875 z"
         style="font-size:medium;font-style:normal;font-variant:normal;font-weight:normal;font-stretch:normal;text-indent:0;text-align:start;text-decoration:none;line-height:normal;letter-spacing:normal;word-spacing:normal;text-transform:none;direction:ltr;block-progression:tb;writing-mode:lr-tb;text-anchor:start;baseline-shift:baseline;color:#000000;fill:#00122b;fill-opacity:0.65860219;fill-rule:nonzero;stroke:none;stroke-width:1.00000001;marker:none;visibility:visible;display:inline;overflow:visible;enable-background:accumulate;font-family:Sans;-inkscape-font-specification:Sans;opacity:1;stroke-linecap:butt;stroke-linejoin:miter;stroke-miterlimit:4;stroke-dasharray:none;stroke-dashoffset:0;stroke-opacity:1" />
    </g>
    <g
       transform="translate(1.6362307e-8,1)"
       id="g3126">
      <rect
         ry="0"
         rx="0"
         y="38"
         x="5"
         height="8"
         width="27"
         id="rect3120"
         style="color:#000000;fill:#ffffff;fill-opacity:0.53577815;fill-rule:nonzero;stroke:none;stroke-width:2.28571415;marker:none;visibility:visible;display:inline;overflow:visible;enable-background:accumulate;opacity:1;stroke-linecap:butt;stroke-linejoin:miter;stroke-miterlimit:4;stroke-dasharray:none;stroke-dashoffset:0;stroke-opacity:1" />
      <text
         sodipodi:linespacing="125%"
         id="text3122"
         y="43.056152"
         x="13.121094"
         style="font-size:3px;font-style:normal;font-variant:normal;font-weight:normal;font-stretch:normal;line-height:125%;letter-spacing:0px;word-spacing:0px;color:#000000;fill:#00122b;fill-opacity:0.65860219;fill-rule:nonzero;stroke:none;stroke-width:1.00000001;marker:none;visibility:visible;display:inline;overflow:visible;enable-background:accumulate;font-family:Monospace;-inkscape-font-specification:Monospace;opacity:1;stroke-linecap:butt;stroke-linejoin:miter;stroke-miterlimit:4;stroke-dasharray:none;stroke-dashoffset:0;stroke-opacity:1;"
         xml:space="preserve"><tspan
           y="43.056152"
           x="13.121094"
           id="tspan3124"
           sodipodi:role="line">Button</tspan></text>
    </g>
    <text
       sodipodi:linespacing="125%"
       id="text3051"
       y="56.056152"
       x="10.621094"
       style="font-size:3px;font-style:normal;font-variant:normal;font-weight:normal;font-stretch:normal;line-height:125%;letter-spacing:0px;word-spacing:0px;color:#000000;fill:#00122b;fill-opacity:0.65860219;fill-rule:nonzero;stroke:none;stroke-width:1.00000001;marker:none;visibility:visible;display:inline;overflow:visible;enable-background:accumulate;font-family:Monospace;-inkscape-font-specification:Monospace;opacity:1;stroke-linecap:butt;stroke-linejoin:miter;stroke-miterlimit:4;stroke-dasharray:none;stroke-dashoffset:0;stroke-opacity:1;"
       xml:space="preserve"><tspan
         y="56.056152"
         x="10.621094"
         id="tspan3053"
         sodipodi:role="line">Input</tspan></text>
  </g>
</svg>

<svg xmlns="http://www.w3.org/2000/svg" viewBox="0 0 64 64" xmlns:xlink="http://www.w3.org/1999/xlink"><defs><path id="0" d="m0 0h16v16h-16z" fill-opacity=".446" fill="#fff" opacity=".001"/></defs><g color="#000"><path d="m0 2v32 28l2 2h30 30l2-2v-28-32h-32z" fill="#aeb4c3"/><path d="m2 0l-2 1v1h19.563 19.563 24.875v-1l-2-1h-22.875-19.563" fill="#e7ecf0"/></g><path d="m64 4l-2-2 2-1" fill="#ccd1db"/><path d="m0 1v3l2-2" fill="#f2f5f7"/><g color="#000"><path fill-opacity=".536" fill="#fff" d="m35 15h25v45h-25z"/><g fill="#00122b" fill-opacity=".659"><rect rx="1.5" y="19" x="56" height="22" width="3"/><rect transform="matrix(0-1 1 0 0 0)" rx="1.5" y="39" x="-59" height="14" width="3"/></g></g><g transform="matrix(.5625 0 0 .5625 1.732 4)"><use xlink:href="#0"/><path d="m5.469 4.03l-1.438 1.438 2.531 2.531-2.531 2.531 1.438 1.438 2.531-2.531 2.531 2.531 1.438-1.438-2.531-2.531 2.531-2.531-1.438-1.438-2.531 2.531z" fill-opacity=".659" color="#000" fill="#00122b"/></g><g transform="matrix(.5625 0 0 .5625 19.732 4)"><use xlink:href="#0"/><path d="m5 5v6h6v-6zm2 2h2v2h-2z" fill-opacity=".659" color="#000" fill="#00122b"/></g><g transform="matrix(.5625 0 0 .5625 10.732 4)"><use xlink:href="#0"/><path d="m4 6.967v2.033h8v-2.033z" fill-opacity=".659" color="#000" fill="#00122b"/></g><g transform="matrix(.5625 0 0 .5625 53 4)"><use xlink:href="#0"/><path d="m6.563 6.734l-2.531 2.531 1.438 1.438 2.531-2.531 2.531 2.531 1.438-1.438-2.531-2.531-1.438-1.438z" fill-opacity=".659" color="#000" fill="#00122b"/></g><g color="#000"><path fill-opacity=".536" fill="#fff" d="m5 51h27v8h-27z"/><text y="21.13" x="15.291" font-family="Monospace" letter-spacing="0" word-spacing="0" fill-opacity=".659" fill="#00122b" line-height="125%" font-size="3" transform="translate(0-1)"><tspan y="21.13" x="15.291">Radio box</tspan></text><path fill-opacity=".536" fill="#fff" d="m5 27h8v8h-8z"/><g fill="#00122b" fill-opacity=".659"><text y="32.13" x="15.291" font-family="Monospace" letter-spacing="0" word-spacing="0" line-height="125%" font-size="3"><tspan y="32.13" x="15.291">Check box</tspan></text><path d="m10.938 27.906l-2.281 3.063-1.188-1.188-1.438 1.438 2 2 .813.813.719-.938 3-4-1.625-1.188"/></g><g transform="translate(0 1)"><path fill-opacity=".536" fill="#fff" d="m5 38h27v8h-27z"/><text y="43.06" x="13.12" font-family="Monospace" letter-spacing="0" word-spacing="0" fill-opacity=".659" fill="#00122b" line-height="125%" font-size="3"><tspan y="43.06" x="13.12">Button</tspan></text></g><text y="56.06" x="10.621" font-family="Monospace" letter-spacing="0" word-spacing="0" fill-opacity=".659" fill="#00122b" line-height="125%" font-size="3"><tspan y="56.06" x="10.621">Input</tspan></text></g></svg>
